remix/Document/pages-line.svg

<svg viewBox="0 0 24 24" fill="currentColor" xmlns="http://www.w3.org/2000/svg"><path d="M5 8V20H19V8H5ZM5 6H19V4H5V6ZM20 22H4C3.44772 22 3 21.5523 3 21V3C3 2.44772 3.44772 2 4 2H20C20.5523 2 21 2.44772 21 3V21C21 21.5523 20.5523 22 20 22ZM7 10H11V14H7V10ZM7 16H17V18H7V16ZM13 11H17V13H13V11Z"/></svg>

<svg viewBox="0 0 24 24" xmlns="http://www.w3.org/2000/svg"><path fill="none" d="M0 0h24v24H0Z"/><path d="M5 8v12h14V8H5Zm0-2h14V4H5v2Zm15 16H4v0c-.56 0-1-.45-1-1V3v0c0-.56.44-1 1-1h16v0c.55 0 1 .44 1 1v18 0c0 .55-.45 1-1 1ZM7 10h4v4H7v-4Zm0 6h10v2H7v-2Zm6-5h4v2h-4v-2Z"/></svg>
